src/pos-icons/hand-pointing-left.svg

<svg height="24" viewBox="0 0 24 24" width="24" xmlns="http://www.w3.org/2000/svg"><path d="m3 9h10l-1.69-3.2-.03-.22c0-.29.12-.55.32-.74l.77-.74 4.2 4.9c.27.26.43.61.43 1v6.5c0 .77-.7 1.5-1.5 1.5h-4.36c-.61 0-1.14-.35-1.34-.85l-2.2-4.94-.13-1.21h-4.47a1 1 0 0 1 -1-1 1 1 0 0 1 1-1m16 9v-8h3v8z"/></svg>

<?xml version="1.0" encoding="UTF-8"?><!DOCTYPE svg PUBLIC "-//W3C//DTD SVG 1.1//EN" "http://www.w3.org/Graphics/SVG/1.1/DTD/svg11.dtd"><svg xmlns="http://www.w3.org/2000/svg" xmlns:xlink="http://www.w3.org/1999/xlink" version="1.1" id="mdi-hand-pointing-left" width="24" height="24" viewBox="0 0 24 24"><path d="M3,9H13L11.31,5.8L11.28,5.58C11.28,5.29 11.4,5.03 11.6,4.84L12.37,4.1L16.57,9C16.84,9.26 17,9.61 17,10V16.5C17,17.27 16.3,18 15.5,18H11.14C10.53,18 10,17.65 9.8,17.15L7.6,12.21L7.47,11H3A1,1 0 0,1 2,10A1,1 0 0,1 3,9M19,18V10H22V18H19Z" /></svg>
